app/client/src/assets/icons/blueprintjs/20px/notifications-snooze.svg

<?xml version="1.0" encoding="UTF-8"?>
<svg width="20px" height="20px" viewBox="0 0 20 20" version="1.1" xmlns="http://www.w3.org/2000/svg" xmlns:xlink="http://www.w3.org/1999/xlink">
    <title>Snooze-20</title>
    <defs>
        <path d="M10,18 C10,19.1 9.1,20 8,20 C6.9,20 6,19.1 6,18 L6,18 Z M8,0 C8.47568807,0 8.91397464,0.168306801 9.25825052,0.448311234 C8.50823865,0.877758335 8.08937374,1.56157576 8,2.5 C7.86666667,3.9 8.4,4.86666667 9.6,5.4 C8.53333333,6.6 8,7.46666667 8,8 L8,9.2 L8,9.2 C8,10.7463973 9.2536027,12 10.8,12 L14,12 L14,14 C14,14.5107143 14.3880102,14.9352041 14.883801,14.9932398 L15,15 C15.55,15 16,15.45 16,16 C16,16.55 15.55,17 15,17 L15,17 L1,17 C0.45,17 0,16.55 0,16 C0,15.45 0.45,15 1,15 C1.55,15 2,14.55 2,14 L2,14 L2,8 C2,5.39 3.67,3.19 6,2.37 L6,2.37 L6,2 C6,0.9 6.9,0 8,0 Z" id="path-1"></path>
    </defs>
    <g id="Snooze-20" stroke="none" stroke-width="1" fill="none" fill-rule="evenodd">
        <g id="Path-4" transform="translate(2.000000, 0.000000)">
            <mask id="mask-2" fill="white">
                <use xlink:href="#path-1"></use>
            </mask>
            <use id="Combined-Shape" fill="#000000" xlink:href="#path-1"></use>
            <path d="M16,9.25 L16,8.85526316 C16,8.4410496 15.6642136,8.10526316 15.25,8.10526316 L12.4375,8.10526316 L12.4375,8.10526316 L15.8334784,3.9003074 C15.9412279,3.76689027 16,3.60057611 16,3.42908245 L16,2.75 C16,2.33578644 15.6642136,2 15.25,2 L10.75,2 C10.3357864,2 10,2.33578644 10,2.75 L10,2.93421053 C10,3.34842409 10.3357864,3.68421053 10.75,3.68421053 L13.5625,3.68421053 L13.5625,3.68421053 L10.2213404,7.83058028 C10.0781056,8.00833427 10,8.22974488 10,8.45802693 L10,9.25 C10,9.66421356 10.3357864,10 10.75,10 L15.25,10 C15.6642136,10 16,9.66421356 16,9.25 Z" id="Path-2" fill="#000000" fill-rule="nonzero"></path>
        </g>
    </g>
</svg>

<svg xmlns="http://www.w3.org/2000/svg" xmlns:xlink="http://www.w3.org/1999/xlink" width="20" height="20"><defs><path id="a" d="M10 18c0 1.1-.9 2-2 2s-2-.9-2-2ZM8 0c.476 0 .914.168 1.258.448C8.508.878 8.09 1.562 8 2.5c-.133 1.4.4 2.367 1.6 2.9C8.533 6.6 8 7.467 8 8v1.2a2.8 2.8 0 0 0 2.8 2.8H14v2c0 .51.388.935.884.993L15 15c.55 0 1 .45 1 1s-.45 1-1 1H1c-.55 0-1-.45-1-1s.45-1 1-1 1-.45 1-1V8c0-2.61 1.67-4.81 4-5.63V2c0-1.1.9-2 2-2Z"/></defs><g fill-rule="evenodd" transform="translate(2)"><use xlink:href="#a"/><path fill-rule="nonzero" d="M16 9.25v-.395a.75.75 0 0 0-.75-.75h-2.813L15.834 3.9A.75.75 0 0 0 16 3.43v-.68a.75.75 0 0 0-.75-.75h-4.5a.75.75 0 0 0-.75.75v.184c0 .414.336.75.75.75h2.813L10.22 7.831a1 1 0 0 0-.221.627v.792c0 .414.336.75.75.75h4.5a.75.75 0 0 0 .75-.75Z"/></g></svg>
